X:1
T:Come, Sing to Me of Jesus’ Love
T:Come, Sing to Me of Jesus’ Love
T:Edward S. Fogg
T:Benjamin Helm, 1894
T:Public Domain Courtesy of the Cyber Hymnal™
T:Public Domain Courtesy of the Cyber Hymnal™
C:Edward S. Fogg
Z:Public Domain
Z:Courtesy of the Cyber Hymnal™
%%score ( 1 2 ) ( 3 4 )
L:1/8
Q:1/4=95
M:4/4
K:D
V:1 treble 
V:2 treble 
V:3 bass 
V:4 bass 
V:1
"^Duet. Con express." [EG]2 | [DF]3 [DF] [EG][CE] [GB]>[FA] | ([FA]4 [EG]2) [FA]2 | %3
w: 1.~Come|sing to me of Je- sus’|love, * For|
w: 2.~Draw|near, and slow- ly sing to|me * How|
w: 3.~Oh,|sing a- gain of Cal- va-|ry, * Where|
w: 4.~Sing|how tho’ now ex- alt- ed|high * At|
 [FA]3 [EG] [DF][CE][DF][EG] | [DF]6 [DF]2 | [DF]3 [DF] [EG][CE] [GB]>[FA] | ([FA]4 [DF]2) [DF]2 | %7
w: life’s swift tide is ebb- ing|still; Sing|how He came from Heav’n a-|bove, * To|
w: thus on Him my sins were|laid, That|I now in His cross may|see * That|
w: Je- sus died my soul to|save; How|through His death and ag- o-|ny * The|
w: His al- migh- ty Fa- ther’s|side, In|death’s cold wave He still is|nigh, * To|
 [CE]3 [DF] [D^G][CA][DB][Ec] | [CA]6 ||"^Refrain" A(3:2:2[^GB][=Gc] x/24 | [Fd]6 (3[Ge][Fd][Ac] | %11
w: save from sin and hu- man|ill.|||
w: all my debt is ful- ly|paid.|Sing of His|love, won- der- ful|
w: Sav- ior tri- umphed o’er the|grave.|||
w: safe- ly bear me o’er the|tide.|||
 [GB]6 [GB]>[Gd] | [Ec]3 [EG] [Gc]2 [GB]2 | [FA]6 (3A[^GB][=Gc] | [Fd]6 (3[Ge][Fd][Ac] | %15
w: ||||
w: love; How He|gave His life for|me! Sing of His|love, won- der- ful|
w: ||||
w: ||||
 [GB]6 [GB]>[Gd] | [Gc]3 [Gc] [GB]2 [Gc]2 | [Fd]6 |] %18
w: |||
w: love, How He|died to set me|free!|
w: |||
w: |||
V:2
 x2 | x8 | x8 | x8 | x8 | x8 | x8 | x8 | x6 || (3:2:1A x41/24 | x8 | x8 | x8 | x6 A x | x8 | x8 | %16
 x8 | x6 |] %18
V:3
 z2 | D,,2 [D,F,A,]2 A,,2 [E,G,A,C]2 | (D,,2 [D,F,A,]2 [D,F,A,]2) [D,F,A,]2 | %3
w: |~ ~ ~ ~|~ * * ~|
 A,,2 [E,G,A,C]2 A,,2 [E,G,A,C]2 | (D,,2 [D,F,A,]2 [D,F,A,]2) [D,F,A,]2 | %5
w: ~ ~ ~ ~|~ * * ~|
 D,,2 [D,F,A,]2 A,,2 [E,G,A,C]2 | (F,,2 [D,F,A,]2 [D,F,A,]2) [D,F,A,]2 | %7
w: ~ ~ ~ ~|~ * * ~|
 E,,2 [E,A,B,]2 E,,2 [E,^G,D]2 | [A,,,A,,]6 || z2 x3/8 | z [D,D] (3[D,D][D,D][D,D] [D,D]2 z2 | %11
w: ~ ~ ~ ~|~||His won- der- ful love,|
 z [G,D] (3[G,D][G,D][G,D] [G,D]2 [G,D]>[G,B,] | A,3 A, [A,,A,]2 [A,,C]2 | [D,D]6 z2 | %14
w: His won- der- ful love; ~ ~|~ ~ ~ ~|~|
 z [D,D] (3[D,D][D,D][D,D] [D,D]2 z2 | z [G,D] (3[G,D][G,D][G,D] [G,D]2 [G,D]>[G,B,] | %16
w: His won- der- ful love,|His won- der- ful love; * *|
 A,3 A, [A,,A,]2 [A,,A,]2 | [D,A,]6 |] %18
w: ||
V:4
 x2 | x8 | x8 | x8 | x8 | x8 | x8 | x8 | x6 || x19/8 | x8 | x8 | A,3 A, x4 | x8 | x8 | x8 | %16
 A,3 A, x4 | x6 |] %18

